icon-themes/breeze_svg/cmd/32/insertcaptiondialog.svg

<svg xmlns="http://www.w3.org/2000/svg" width="32" height="32" viewBox="0 0 32 32"><defs><linearGradient id="c"><stop offset="0" stop-color="#020303"/><stop offset="1" stop-color="#424649" stop-opacity="0"/></linearGradient><linearGradient id="a"><stop offset="0" stop-color="#c61423"/><stop offset="1" stop-color="#dc2b41"/></linearGradient><linearGradient id="b"><stop offset="0" stop-color="#ed868d"/><stop offset="1" stop-color="#fbe6e8"/></linearGradient></defs><g color="#000"><path d="M19 26c-.552 0-1 .448-1 1s.448 1 1 1 1-.448 1-1-.448-1-1-1zm4 0c-.552 0-1 .448-1 1s.448 1 1 1 1-.448 1-1-.448-1-1-1zm4 0c-.552 0-1 .448-1 1s.448 1 1 1 1-.448 1-1-.448-1-1-1z" overflow="visible" fill="#f47750"/><path style="isolation:auto;mix-blend-mode:normal" d="M13 4v8H8L4 28h2.06l3.5-14H13v8h15V4H13zm1 1h13v16H14V5z" overflow="visible" solid-color="#000000" fill="#4d4d4d" fill-rule="evenodd"/></g></svg>

<svg xmlns="http://www.w3.org/2000/svg" viewBox="0 0 32 32">
 <path 
     style="fill:#f47750" 
     d="M 19 26 C 18.448 26 18 26.448 18 27 C 18 27.552 18.448 28 19 28 C 19.552 28 20 27.552 20 27 C 20 26.448 19.552 26 19 26 z M 23 26 C 22.448 26 22 26.448 22 27 C 22 27.552 22.448 28 23 28 C 23.552 28 24 27.552 24 27 C 24 26.448 23.552 26 23 26 z M 27 26 C 26.448 26 26 26.448 26 27 C 26 27.552 26.448 28 27 28 C 27.552 28 28 27.552 28 27 C 28 26.448 27.552 26 27 26 z "
     />
 <path 
     style="fill:#4d4d4d" 
     d="M 13 4 L 13 12 L 8 12 L 4 28 L 6.0605469 28 L 9.5605469 14 L 13 14 L 13 22 L 28 22 L 28 4 L 13 4 z M 14 5 L 27 5 L 27 21 L 14 21 L 14 5 z "
     />
</svg>
